icons/libsql-filled.svg

<svg width="256" height="256" viewBox="0 0 256 256" fill="none" xmlns="http://www.w3.org/2000/svg">
<rect width="256" height="256" rx="60" fill="#72F5CF"/>
<path d="M135.714 110.224C136.294 110.224 136.791 110.224 137.288 110.473C137.619 110.556 137.95 110.721 138.281 110.887L138.778 111.135C139.11 111.384 139.358 111.549 139.689 111.881L143.996 116.188C146.233 118.424 146.233 121.985 143.996 124.222L65.229 202.989C64.1523 204.066 62.6614 204.646 61.2534 204.646C59.8453 204.646 58.3545 204.066 57.2777 202.989L52.9708 198.682C50.7345 196.446 50.7345 192.884 52.9708 190.648L123.456 120.163L131.738 111.881C131.987 111.632 132.318 111.384 132.649 111.135L133.146 110.887C133.478 110.721 133.809 110.556 134.14 110.473C134.637 110.307 135.217 110.224 135.714 110.224ZM135.714 96.9721C133.892 96.9721 132.07 97.2206 130.33 97.7175C129.171 98.0488 128.011 98.5458 126.934 99.1256C126.355 99.4569 125.858 99.7053 125.278 100.119C124.201 100.782 123.207 101.61 122.296 102.521L114.013 110.804L43.5286 181.289C36.1571 188.66 36.1571 200.67 43.5286 208.042L47.8356 212.349C51.3971 215.91 56.201 217.898 61.2534 217.898C66.3057 217.898 71.0268 215.91 74.6712 212.349L153.439 133.581C157 130.02 158.988 125.216 158.988 120.163C158.988 115.111 157 110.39 153.439 106.746L149.132 102.439C148.221 101.528 147.227 100.699 146.15 100.037C145.653 99.7053 145.073 99.374 144.576 99.0427C143.499 98.4629 142.34 97.966 141.18 97.6347C139.441 97.1377 137.619 96.8893 135.797 96.8893L135.714 96.9721Z" fill="#72F5CF"/>
<path d="M136.873 51.2521H137.619L192.698 54.3995C197.502 54.648 201.229 58.458 201.56 63.2619L204.708 118.341C204.956 121.985 203.548 125.547 200.981 128.115L134.968 194.127C132.484 196.612 129.253 197.854 125.858 197.854C122.462 197.854 123.124 197.606 121.799 197.191L80.4689 183.525C76.5761 182.283 73.5944 179.218 72.352 175.408L58.6857 134.078C57.1949 129.44 58.3544 124.387 61.8331 120.992L127.763 54.9793C130.164 52.5774 133.478 51.2521 136.873 51.2521ZM136.873 38C129.916 38 123.373 40.7333 118.403 45.62L52.391 111.632C45.3508 118.672 42.9488 128.86 46.0962 138.219L59.7625 179.549C62.3301 187.335 68.542 193.547 76.3277 196.115L117.658 209.781C120.308 210.692 123.041 211.106 125.858 211.106C132.815 211.106 139.358 208.373 144.328 203.486L210.34 137.474C215.558 132.256 218.374 124.967 217.96 117.513L214.813 62.4336C214.15 50.9208 204.956 41.81 193.526 41.1474L138.364 38H136.873Z" fill="#72F5CF"/>
<path d="M58.603 134.161L72.2693 175.491C73.5117 179.384 76.5763 182.366 80.3862 183.608L121.716 197.274C126.355 198.765 131.407 197.606 134.803 194.127L200.815 128.115C203.383 125.547 204.791 121.985 204.542 118.341L201.395 63.2619C201.146 58.458 197.336 54.7309 192.533 54.3995L137.453 51.2522C133.809 51.0037 130.247 52.4117 127.68 54.9793L61.7504 121.074C58.3546 124.47 57.1122 129.605 58.603 134.161Z" fill="#A8F7D9"/>
<path d="M136.873 51.2521H137.619L192.698 54.3995C197.502 54.648 201.229 58.458 201.56 63.2619L204.708 118.341C204.956 121.985 203.548 125.547 200.981 128.115L134.968 194.127C132.484 196.612 129.253 197.854 125.858 197.854C122.462 197.854 123.124 197.605 121.799 197.191L80.469 183.525C76.5761 182.283 73.5944 179.218 72.352 175.408L58.6857 134.078C57.1949 129.44 58.3544 124.387 61.8331 120.992L127.763 54.9793C130.165 52.5773 133.478 51.2521 136.873 51.2521ZM136.873 42.9695C131.241 42.9695 125.94 45.2058 121.965 49.1815L55.8697 115.194C50.2375 120.826 48.2497 129.108 50.7345 136.728L64.4007 178.059C66.4714 184.353 71.5238 189.406 77.8185 191.476L119.149 205.143C121.302 205.888 123.538 206.219 125.775 206.219C131.407 206.219 136.708 203.983 140.683 200.007L206.696 133.995C210.92 129.771 213.156 123.89 212.825 117.844L209.677 62.7649C209.18 53.8197 201.975 46.6139 193.029 46.1169L137.95 42.9695H136.708H136.873Z" fill="#141B1F"/>
<path d="M151.202 181.868L156.917 176.153L156.42 175.905L133.56 168.368L127.845 174.083L151.285 181.786L151.202 181.868ZM175.884 157.186L181.599 151.471L181.102 151.223L158.242 143.686L152.527 149.401L175.967 157.104L175.884 157.186ZM74.0084 104.675L79.7234 98.9598L79.9718 99.4567L87.509 122.317L81.794 128.032L74.0912 104.592L74.0084 104.675ZM98.6905 79.9926L104.405 74.2776L104.654 74.7746L112.191 97.6345L106.476 103.35L98.7733 79.9098L98.6905 79.9926Z" fill="#141B1F"/>
<path d="M146.15 122.068L65.2289 202.989C62.9926 205.225 59.431 205.225 57.1947 202.989L52.8878 198.682C50.6515 196.446 50.6515 192.884 52.8878 190.648L133.809 109.727C135.051 108.485 136.625 107.739 138.364 107.574L144.907 106.911C147.227 106.663 149.132 108.65 148.966 110.97L148.303 117.513C148.138 119.252 147.392 120.826 146.15 122.068Z" fill="#79AC91"/>
<path d="M145.239 106.994C147.392 106.994 149.132 108.816 148.883 111.052L148.221 117.596C148.055 119.335 147.31 120.909 146.067 122.151L65.1463 203.072C64.0696 204.149 62.5787 204.728 61.1707 204.728C59.7627 204.728 58.2718 204.149 57.1951 203.072L52.8881 198.765C50.6518 196.529 50.6518 192.967 52.8881 190.731L133.809 109.81C135.051 108.568 136.625 107.822 138.364 107.656L144.908 106.994H145.239ZM145.239 98.7112H144.079L137.536 99.3738C133.892 99.7051 130.496 101.362 128.011 103.929L47.0075 184.85C41.541 190.317 41.541 199.179 47.0075 204.563L51.3144 208.87C53.9649 211.52 57.4435 212.928 61.1707 212.928C64.8979 212.928 68.3766 211.437 71.027 208.87L151.948 127.949C154.515 125.381 156.089 121.985 156.503 118.424L157.166 111.881C157.497 108.568 156.42 105.172 154.101 102.687C151.865 100.202 148.635 98.7941 145.239 98.7941V98.7112Z" fill="#141B1F"/>
</svg>

<svg xmlns="http://www.w3.org/2000/svg" width="256" height="256" fill="none"><rect width="256" height="256" fill="#72F5CF" rx="60"/><path fill="#72F5CF" d="M135.714 110.224c.58 0 1.077 0 1.574.249.331.083.662.248.993.414l.497.248c.332.249.58.414.911.746l4.307 4.307a5.65 5.65 0 0 1 0 8.034l-78.767 78.767a5.72 5.72 0 0 1-3.976 1.657 5.72 5.72 0 0 1-3.975-1.657l-4.307-4.307a5.65 5.65 0 0 1 0-8.034l70.485-70.485 8.282-8.282c.249-.249.58-.497.911-.746l.497-.248c.332-.166.663-.331.994-.414a5.2 5.2 0 0 1 1.574-.249m0-13.252c-1.822 0-3.644.249-5.384.746-1.159.33-2.319.828-3.396 1.408-.579.33-1.076.58-1.656.993-1.077.663-2.071 1.491-2.982 2.402l-8.283 8.283-70.484 70.485c-7.372 7.371-7.372 19.381 0 26.753l4.307 4.307a18.93 18.93 0 0 0 13.417 5.549c5.053 0 9.774-1.988 13.418-5.549l78.768-78.768a18.93 18.93 0 0 0 5.549-13.418c0-5.052-1.988-9.773-5.549-13.417l-4.307-4.307c-.911-.911-1.905-1.74-2.982-2.402-.497-.332-1.077-.663-1.574-.994-1.077-.58-2.236-1.077-3.396-1.408a19.6 19.6 0 0 0-5.383-.746z"/><path fill="#72F5CF" d="M136.873 51.252h.746l55.079 3.148c4.804.248 8.531 4.058 8.862 8.862l3.148 55.079c.248 3.644-1.16 7.206-3.727 9.774l-66.013 66.012c-2.484 2.485-5.715 3.727-9.11 3.727-3.396 0-2.734-.248-4.059-.663l-41.33-13.666c-3.893-1.242-6.875-4.307-8.117-8.117l-13.666-41.33c-1.491-4.638-.332-9.691 3.147-13.086l65.93-66.013c2.401-2.402 5.715-3.727 9.11-3.727m0-13.252c-6.957 0-13.5 2.733-18.47 7.62l-66.012 66.012c-7.04 7.04-9.442 17.228-6.295 26.587l13.667 41.33c2.567 7.786 8.779 13.998 16.565 16.566l41.33 13.666c2.65.911 5.383 1.325 8.2 1.325 6.957 0 13.5-2.733 18.47-7.62l66.012-66.012a26.25 26.25 0 0 0 7.62-19.961l-3.147-55.08c-.663-11.512-9.857-20.623-21.287-21.286L138.364 38z"/><path fill="#A8F7D9" d="m58.603 134.161 13.666 41.33c1.243 3.893 4.307 6.875 8.117 8.117l41.33 13.666c4.639 1.491 9.691.332 13.087-3.147l66.012-66.012c2.568-2.568 3.976-6.13 3.727-9.774l-3.147-55.08c-.249-4.803-4.059-8.53-8.862-8.861l-55.08-3.148c-3.644-.248-7.206 1.16-9.773 3.727l-65.93 66.095c-3.395 3.396-4.638 8.531-3.147 13.087"/><path fill="#141B1F" d="M136.873 51.252h.746l55.079 3.148c4.804.248 8.531 4.058 8.862 8.862l3.148 55.079c.248 3.644-1.16 7.206-3.727 9.774l-66.013 66.012c-2.484 2.485-5.715 3.727-9.11 3.727-3.396 0-2.734-.249-4.059-.663l-41.33-13.666c-3.893-1.242-6.875-4.307-8.117-8.117l-13.666-41.33c-1.491-4.638-.332-9.691 3.147-13.086l65.93-66.013c2.402-2.402 5.715-3.727 9.11-3.727m0-8.283c-5.632 0-10.933 2.237-14.908 6.212L55.87 115.195c-5.632 5.632-7.62 13.914-5.135 21.534l13.665 41.33c2.07 6.294 7.123 11.347 13.418 13.417l41.33 13.667c2.153.745 4.389 1.076 6.626 1.076 5.632 0 10.933-2.236 14.908-6.212l66.013-66.012c4.224-4.224 6.46-10.105 6.129-16.151l-3.148-55.08c-.497-8.944-7.702-16.15-16.648-16.647l-55.079-3.148h-1.242z"/><path fill="#141B1F" d="m151.202 181.868 5.715-5.715-.497-.248-22.86-7.537-5.715 5.715 23.44 7.703zm24.682-24.682 5.715-5.715-.497-.248-22.86-7.537-5.715 5.715 23.44 7.703zM74.008 104.675l5.715-5.715.249.497 7.537 22.86-5.715 5.715-7.703-23.44zm24.683-24.682 5.714-5.715.249.497 7.537 22.86-5.715 5.715-7.703-23.44z"/><path fill="#79AC91" d="m146.15 122.068-80.921 80.921a5.65 5.65 0 0 1-8.034 0l-4.307-4.307a5.65 5.65 0 0 1 0-8.034l80.921-80.921a7.36 7.36 0 0 1 4.555-2.153l6.543-.663c2.32-.248 4.225 1.739 4.059 4.059l-.663 6.543a7.36 7.36 0 0 1-2.153 4.555"/><path fill="#141B1F" d="M145.239 106.994c2.153 0 3.893 1.822 3.644 4.058l-.662 6.544a7.36 7.36 0 0 1-2.154 4.555l-80.92 80.921a5.72 5.72 0 0 1-3.976 1.656 5.72 5.72 0 0 1-3.976-1.656l-4.307-4.307a5.65 5.65 0 0 1 0-8.034l80.921-80.921a7.36 7.36 0 0 1 4.555-2.154l6.544-.662zm0-8.283h-1.16l-6.543.663a15.24 15.24 0 0 0-9.525 4.555L47.008 184.85c-5.467 5.467-5.467 14.329 0 19.713l4.306 4.307c2.65 2.65 6.13 4.058 9.857 4.058s7.206-1.491 9.856-4.058l80.921-80.921c2.567-2.568 4.141-5.964 4.555-9.525l.663-6.543c.331-3.313-.746-6.709-3.065-9.194-2.236-2.485-5.466-3.893-8.862-3.893z"/></svg>
